public/assets/forbes.svg

<?xml version="1.0" encoding="UTF-8"?>
<svg xmlns="http://www.w3.org/2000/svg" viewBox="0 0 200 54">
  <path fill="#33629A" d="M113.3 18.2c0-5.8.1-11.2.4-16.2L98.4 4.9v1.4l1.5.2c1.1.1 1.8.5 2.2 1.1.4.7.7 1.7.9 3.2.2 2.9.4 9.5.3 19.9 0 10.3-.1 16.8-.3 19.3 5.5 1.2 9.8 1.7 13 1.7 6 0 10.7-1.7 14.1-5.2 3.4-3.4 5.2-8.2 5.2-14.1 0-4.7-1.3-8.6-3.9-11.7-2.6-3.1-5.9-4.6-9.8-4.6-2.6 0-5.3.7-8.3 2.1zm.3 30.8c-.2-3.2-.4-12.8-.4-28.5.9-.3 2.1-.5 3.6-.5 2.4 0 4.3 1.2 5.7 3.7 1.4 2.5 2.1 5.5 2.1 9.3 0 4.7-.8 8.5-2.4 11.7-1.6 3.1-3.6 4.7-6.1 4.7-.8-.2-1.6-.3-2.5-.4zM41 3H1v2l2.1.2c1.6.3 2.7.9 3.4 1.8.7 1 1.1 2.6 1.2 4.8.8 10.8.8 20.9 0 30.2-.2 2.2-.6 3.8-1.2 4.8-.7 1-1.8 1.6-3.4 1.8l-2.1.3v2h25.8v-2l-2.7-.2a4.9 4.9 0 0 1-3.4-1.8c-.7-1-1.1-2.6-1.2-4.8-.3-4-.5-8.6-.5-13.7l5.4.1c2.9.1 4.9 2.3 5.9 6.7h2V18.9h-2c-1 4.3-2.9 6.5-5.9 6.6l-5.4.1c0-9 .2-15.4.5-19.3h7.9c5.6 0 9.4 3.6 11.6 10.8l2.4-.7L41 3zm-4.7 30.8c0 5.2 1.5 9.5 4.4 12.9 2.9 3.4 7.2 5 12.6 5s9.8-1.7 13-5.2c3.2-3.4 4.7-7.7 4.7-12.9s-1.5-9.5-4.4-12.9c-2.9-3.4-7.2-5-12.6-5s-9.8 1.7-13 5.2c-3.2 3.4-4.7 7.7-4.7 12.9zm22.3-11.4c1.2 2.9 1.7 6.7 1.7 11.3 0 10.6-2.2 15.8-6.5 15.8-2.2 0-3.9-1.5-5.1-4.5-1.2-3-1.7-6.8-1.7-11.3C47 23.2 49.2 18 53.5 18c2.2-.1 3.9 1.4 5.1 4.4zm84.5 24.3c3.3 3.3 7.5 5 12.5 5 3.1 0 5.8-.6 8.2-1.9 2.4-1.2 4.3-2.7 5.6-4.5l-1-1.2c-2.2 1.7-4.7 2.5-7.6 2.5-4 0-7.1-1.3-9.2-4-2.2-2.7-3.2-6.1-3-10.5H170c0-4.8-1.2-8.7-3.7-11.8-2.5-3-6-4.5-10.5-4.5-5.6 0-9.9 1.8-13 5.3-3.1 3.5-4.6 7.8-4.6 12.9 0 5.2 1.6 9.4 4.9 12.7zm7.4-25.1c1.1-2.4 2.5-3.6 4.4-3.6 3 0 4.5 3.8 4.5 11.5l-10.6.2c.1-3 .6-5.7 1.7-8.1zm46.4-4c-2.7-1.2-6.1-1.9-10.2-1.9-4.2 0-7.5 1.1-10 3.2s-3.8 4.7-3.8 7.8c0 2.7.8 4.8 2.3 6.3 1.5 1.5 3.9 2.8 7 3.9 2.8 1 4.8 2 5.8 2.9 1 1 1.6 2.1 1.6 3.6 0 1.4-.5 2.7-1.6 3.7-1 1.1-2.4 1.6-4.2 1.6-4.4 0-7.7-3.2-10-9.6l-1.7.5.4 10c3.6 1.4 7.6 2.1 12 2.1 4.6 0 8.1-1 10.7-3.1 2.6-2 3.9-4.9 3.9-8.5 0-2.4-.6-4.4-1.9-5.9-1.3-1.5-3.4-2.8-6.4-4-3.3-1.2-5.6-2.3-6.8-3.3-1.2-1-1.8-2.2-1.8-3.7s.4-2.7 1.3-3.7 2-1.4 3.4-1.4c4 0 6.9 2.9 8.7 8.6l1.7-.5-.4-8.6zm-96.2-.9c-1.4-.7-2.9-1-4.6-1-1.7 0-3.4.7-5.3 2.1-1.9 1.4-3.3 3.3-4.4 5.9l.1-8-15.2 3v1.4l1.5.1c1.9.2 3 1.7 3.2 4.4.6 6.2.6 12.8 0 19.8-.2 2.7-1.3 4.1-3.2 4.4l-1.5.2v1.9h21.2V49l-2.7-.2c-1.9-.2-3-1.7-3.2-4.4-.6-5.8-.7-12-.2-18.4.6-1 1.9-1.6 3.9-1.8 2-.2 4.3.4 6.7 1.8l3.7-9.3z"/>
</svg>

<svg width="200" height="54" viewBox="0 0 200 54" fill="none" xmlns="http://www.w3.org/2000/svg">
<path d="M113.3 18.2C113.3 12.4 113.4 7 113.7 2L98.4 4.9V6.3L99.9 6.5C101 6.6 101.7 7 102.1 7.6C102.5 8.3 102.8 9.3 103 10.8C103.2 13.7 103.4 20.3 103.3 30.7C103.3 41 103.2 47.5 103 50C108.5 51.2 112.8 51.7 116 51.7C122 51.7 126.7 50 130.1 46.5C133.5 43.1 135.3 38.3 135.3 32.4C135.3 27.7 134 23.8 131.4 20.7C128.8 17.6 125.5 16.1 121.6 16.1C119 16.1 116.3 16.8 113.3 18.2ZM113.6 49C113.4 45.8 113.2 36.2 113.2 20.5C114.1 20.2 115.3 20 116.8 20C119.2 20 121.1 21.2 122.5 23.7C123.9 26.2 124.6 29.2 124.6 33C124.6 37.7 123.8 41.5 122.2 44.7C120.6 47.8 118.6 49.4 116.1 49.4C115.3 49.2 114.5 49.1 113.6 49ZM41 3H1V5L3.1 5.2C4.7 5.5 5.8 6.1 6.5 7C7.2 8 7.6 9.6 7.7 11.8C8.5 22.6 8.5 32.7 7.7 42C7.5 44.2 7.1 45.8 6.5 46.8C5.8 47.8 4.7 48.4 3.1 48.6L1 48.9V50.9H26.8V48.9L24.1 48.7C23.4412 48.6449 22.8003 48.457 22.216 48.1476C21.6316 47.8383 21.116 47.4139 20.7 46.9C20 45.9 19.6 44.3 19.5 42.1C19.2 38.1 19 33.5 19 28.4L24.4 28.5C27.3 28.6 29.3 30.8 30.3 35.2H32.3V18.9H30.3C29.3 23.2 27.4 25.4 24.4 25.5L19 25.6C19 16.6 19.2 10.2 19.5 6.3H27.4C33 6.3 36.8 9.9 39 17.1L41.4 16.4L41 3ZM36.3 33.8C36.3 39 37.8 43.3 40.7 46.7C43.6 50.1 47.9 51.7 53.3 51.7C58.7 51.7 63.1 50 66.3 46.5C69.5 43.1 71 38.8 71 33.6C71 28.4 69.5 24.1 66.6 20.7C63.7 17.3 59.4 15.7 54 15.7C48.6 15.7 44.2 17.4 41 20.9C37.8 24.3 36.3 28.6 36.3 33.8ZM58.6 22.4C59.8 25.3 60.3 29.1 60.3 33.7C60.3 44.3 58.1 49.5 53.8 49.5C51.6 49.5 49.9 48 48.7 45C47.5 42 47 38.2 47 33.7C47 23.2 49.2 18 53.5 18C55.7 17.9 57.4 19.4 58.6 22.4ZM143.1 46.7C146.4 50 150.6 51.7 155.6 51.7C158.7 51.7 161.4 51.1 163.8 49.8C166.2 48.6 168.1 47.1 169.4 45.3L168.4 44.1C166.2 45.8 163.7 46.6 160.8 46.6C156.8 46.6 153.7 45.3 151.6 42.6C149.4 39.9 148.4 36.5 148.6 32.1H170C170 27.3 168.8 23.4 166.3 20.3C163.8 17.3 160.3 15.8 155.8 15.8C150.2 15.8 145.9 17.6 142.8 21.1C139.7 24.6 138.2 28.9 138.2 34C138.2 39.2 139.8 43.4 143.1 46.7ZM150.5 21.6C151.6 19.2 153 18 154.9 18C157.9 18 159.4 21.8 159.4 29.5L148.8 29.7C148.9 26.7 149.4 24 150.5 21.6ZM196.9 17.6C194.2 16.4 190.8 15.7 186.7 15.7C182.5 15.7 179.2 16.8 176.7 18.9C174.2 21 172.9 23.6 172.9 26.7C172.9 29.4 173.7 31.5 175.2 33C176.7 34.5 179.1 35.8 182.2 36.9C185 37.9 187 38.9 188 39.8C189 40.8 189.6 41.9 189.6 43.4C189.6 44.8 189.1 46.1 188 47.1C187 48.2 185.6 48.7 183.8 48.7C179.4 48.7 176.1 45.5 173.8 39.1L172.1 39.6L172.5 49.6C176.1 51 180.1 51.7 184.5 51.7C189.1 51.7 192.6 50.7 195.2 48.6C197.8 46.6 199.1 43.7 199.1 40.1C199.1 37.7 198.5 35.7 197.2 34.2C195.9 32.7 193.8 31.4 190.8 30.2C187.5 29 185.2 27.9 184 26.9C182.8 25.9 182.2 24.7 182.2 23.2C182.2 21.7 182.6 20.5 183.5 19.5C184.4 18.5 185.5 18.1 186.9 18.1C190.9 18.1 193.8 21 195.6 26.7L197.3 26.2L196.9 17.6ZM100.7 16.7C99.3 16 97.8 15.7 96.1 15.7C94.4 15.7 92.7 16.4 90.8 17.8C88.9 19.2 87.5 21.1 86.4 23.7L86.5 15.7L71.3 18.7V20.1L72.8 20.2C74.7 20.4 75.8 21.9 76 24.6C76.6 30.8 76.6 37.4 76 44.4C75.8 47.1 74.7 48.5 72.8 48.8L71.3 49V50.9H92.5V49L89.8 48.8C87.9 48.6 86.8 47.1 86.6 44.4C86 38.6 85.9 32.4 86.4 26C87 25 88.3 24.4 90.3 24.2C92.3 24 94.6 24.6 97 26L100.7 16.7Z" fill="white"/>
</svg>
